X: 23415
T: Les Filles De Mon Pays
R: hornpipe
M: 4/4
K: Gmajor
G2 B>A G2 B>A|GABc d4|B3 d dBGA|B3c/B/ A3B/A/|
G2 B>A G2 B>A|GABc d4|B3 d dBGA|B3A G2(3ABc|
d2 g>f e3 d|c2e2 d4|B3 d dBGA|B3 c/B/ A4|
d2 g>f e3 d|c2e2 d4|B3 d dBGA|B3A G4|

